X:1
T:Spring
C:Vivaldi
Z:Evan S.
Q:"Allegro" 1/4=120
M:4/4
K:E
L:1/16
e | gg gfe b ba | gg g fe b ba | gab ag fdBe | 
gg gfe b ba | gg gfe b ba | gab ag f e | 
bag ab c' b e | bag ab c' b e | c' b a gfe f | e |]

